public/background.svg

<?xml version="1.0" encoding="UTF-8" standalone="no"?>
<svg
   xmlns:dc="http://purl.org/dc/elements/1.1/"
   xmlns:cc="http://creativecommons.org/ns#"
   xmlns:rdf="http://www.w3.org/1999/02/22-rdf-syntax-ns#"
   xmlns:svg="http://www.w3.org/2000/svg"
   xmlns="http://www.w3.org/2000/svg"
   xmlns:sodipodi="http://sodipodi.sourceforge.net/DTD/sodipodi-0.dtd"
   xmlns:inkscape="http://www.inkscape.org/namespaces/inkscape"
   inkscape:version="1.0 (4035a4fb49, 2020-05-01)"
   sodipodi:docname="background.svg"
   id="svg48"
   version="1.1"
   viewBox="0 0 1920 4796.968"
   height="7060"
   width="1920">
  <metadata
     id="metadata52">
    <rdf:RDF>
      <cc:Work
         rdf:about="">
        <dc:format>image/svg+xml</dc:format>
        <dc:type
           rdf:resource="http://purl.org/dc/dcmitype/StillImage" />
      </cc:Work>
    </rdf:RDF>
  </metadata>
  <sodipodi:namedview
     inkscape:current-layer="Gruppe_213"
     inkscape:window-maximized="0"
     inkscape:window-y="59"
     inkscape:window-x="158"
     inkscape:cy="2832.7857"
     inkscape:cx="1060"
     inkscape:zoom="0.1049082"
     showgrid="false"
     id="namedview50"
     inkscape:window-height="850"
     inkscape:window-width="1386"
     inkscape:pageshadow="2"
     inkscape:pageopacity="0"
     guidetolerance="10"
     gridtolerance="10"
     objecttolerance="10"
     borderopacity="1"
     bordercolor="#666666"
     pagecolor="#ffffff" />
  <defs
     id="defs35">
    <filter
       filterUnits="userSpaceOnUse"
       height="2764.8149"
       width="2217"
       y="4594"
       x="0"
       id="Pfad_294">
      <feOffset
         id="feOffset2"
         input="SourceAlpha"
         dy="100"
         dx="100" />
      <feGaussianBlur
         id="feGaussianBlur4"
         result="blur"
         stdDeviation="49.5" />
      <feFlood
         id="feFlood6"
         flood-opacity="0.161" />
      <feComposite
         result="result1"
         id="feComposite8"
         in2="blur"
         operator="in" />
      <feComposite
         id="feComposite10"
         in2="result1"
         in="SourceGraphic" />
    </filter>
    <filter
       filterUnits="userSpaceOnUse"
       height="3853.7639"
       width="1087.791"
       y="2618.0471"
       x="929.20898"
       id="Pfad_251">
      <feOffset
         id="feOffset13"
         input="SourceAlpha"
         dx="-100" />
      <feGaussianBlur
         id="feGaussianBlur15"
         result="blur-2"
         stdDeviation="49.5" />
      <feFlood
         id="feFlood17"
         flood-opacity="0.161" />
      <feComposite
         result="result1"
         id="feComposite19"
         in2="blur-2"
         operator="in" />
      <feComposite
         id="feComposite21"
         in2="result1"
         in="SourceGraphic" />
    </filter>
    <filter
       filterUnits="userSpaceOnUse"
       height="2764.8149"
       width="2217"
       y="0"
       x="0"
       id="Pfad_249">
      <feOffset
         id="feOffset24"
         input="SourceAlpha"
         dy="100"
         dx="100" />
      <feGaussianBlur
         id="feGaussianBlur26"
         result="blur-3"
         stdDeviation="49.5" />
      <feFlood
         id="feFlood28"
         flood-opacity="0.161" />
      <feComposite
         result="result1"
         id="feComposite30"
         in2="blur-3"
         operator="in" />
      <feComposite
         id="feComposite32"
         in2="result1"
         in="SourceGraphic" />
    </filter>
  </defs>
  <g
     transform="translate(0,-1179.4075)"
     data-name="Gruppe 213"
     id="Gruppe_213">
    <path
       fill="#560541"
       transform="translate(3018.77,3237.727)"
       d="m -3018.77,-3237.727 h 1920 v 7060 h -1920"
       data-name="Pfad 1"
       id="Pfad_1" />
    <g
       id="g39"
       filter="url(#Pfad_294)"
       transform="translate(-48.5,-48.5)">
      <path
         fill="#1b0650"
         transform="translate(83.5,4607.5)"
         d="m 1799.406,2261.78 c -70.018,-123.7 -57.635,-88.039 -194.479,-253.764 -224.079,-73.679 -407.876,-197.718 -576.793,-357.244 C 859.217,1491.246 764.308,1374.224 656.613,1224.136 507.27,972.115 603.831,906.05 517.729,721.709 393.012,445.519 339.121,480.409 246.167,366.07 59.137,136.02 -35,35 -35,35 v 2467.815 h 1920 c 0,0 -15.575,-117.336 -85.594,-241.035 z"
         data-name="Pfad 294"
         id="Pfad_294-2" />
    </g>
    <g
       id="g42"
       filter="url(#Pfad_251)"
       transform="translate(-48.5,-48.5)">
      <path
         fill="#1b0650"
         transform="translate(48.5,48.5)"
         d="m 1920,2718.047 c -166.6,15.33 -764.254,235.481 -789.088,813.068 -24.834,577.587 228.935,949.185 307.509,1175.257 78.574,226.072 115.729,589.971 90.535,669.924 -25.194,79.953 -183.786,711.719 391.044,898.515 z"
         data-name="Pfad 251"
         id="Pfad_251-2" />
    </g>
    <g
       id="g45"
       filter="url(#Pfad_249)"
       transform="translate(-48.5,-48.5)">
      <path
         fill="#1b0650"
         transform="translate(83.5,13.5)"
         d="m 1799.406,276.035 c -70.018,123.7 -57.635,88.039 -194.479,253.764 -224.079,73.679 -407.876,197.718 -576.793,357.244 -168.917,159.526 -263.826,276.548 -371.522,426.637 -149.342,252.02 -52.781,318.085 -138.883,502.426 -124.717,276.19 -178.608,241.3 -271.562,355.639 C 59.137,2401.795 -35,2502.815 -35,2502.815 V 35 h 1920 c 0,0 -15.575,117.335 -85.594,241.035 z"
         data-name="Pfad 249"
         id="Pfad_249-2" />
    </g>
  </g>
</svg>

<svg xmlns="http://www.w3.org/2000/svg" xmlns:xlink="http://www.w3.org/1999/xlink" width="2217" height="7358.815" viewBox="0 0 2217 7358.815">
  <defs>
    <filter id="Pfad_294" x="0" y="4594" width="2217" height="2764.815" filterUnits="userSpaceOnUse">
      <feOffset dx="100" dy="100" input="SourceAlpha"/>
      <feGaussianBlur stdDeviation="49.5" result="blur"/>
      <feFlood flood-opacity="0.161"/>
      <feComposite operator="in" in2="blur"/>
      <feComposite in="SourceGraphic"/>
    </filter>
    <filter id="Pfad_251" x="929.209" y="2618.047" width="1087.791" height="3853.764" filterUnits="userSpaceOnUse">
      <feOffset dx="-100" input="SourceAlpha"/>
      <feGaussianBlur stdDeviation="49.5" result="blur-2"/>
      <feFlood flood-opacity="0.161"/>
      <feComposite operator="in" in2="blur-2"/>
      <feComposite in="SourceGraphic"/>
    </filter>
    <filter id="Pfad_249" x="0" y="0" width="2217" height="2764.815" filterUnits="userSpaceOnUse">
      <feOffset dx="100" dy="100" input="SourceAlpha"/>
      <feGaussianBlur stdDeviation="49.5" result="blur-3"/>
      <feFlood flood-opacity="0.161"/>
      <feComposite operator="in" in2="blur-3"/>
      <feComposite in="SourceGraphic"/>
    </filter>
  </defs>
  <g id="Gruppe_213" data-name="Gruppe 213" transform="translate(48.5 48.5)">
    <path id="Pfad_1" data-name="Pfad 1" d="M-3018.77-3237.727h1920v7060h-1920" transform="translate(3018.77 3237.727)" fill="#560541"/>
    <g transform="matrix(1, 0, 0, 1, -48.5, -48.5)" filter="url(#Pfad_294)">
      <path id="Pfad_294-2" data-name="Pfad 294" d="M1799.406,2261.78c-70.018-123.7-57.635-88.039-194.479-253.764-224.079-73.679-407.876-197.718-576.793-357.244s-263.826-276.548-371.521-426.636C507.27,972.115,603.831,906.05,517.729,721.709c-124.717-276.19-178.608-241.3-271.562-355.639C59.137,136.02-35,35-35,35V2502.815H1885S1869.425,2385.479,1799.406,2261.78Z" transform="translate(83.5 4607.5)" fill="#1b0650"/>
    </g>
    <g transform="matrix(1, 0, 0, 1, -48.5, -48.5)" filter="url(#Pfad_251)">
      <path id="Pfad_251-2" data-name="Pfad 251" d="M1920,2718.047c-166.6,15.33-764.254,235.481-789.088,813.068s228.935,949.185,307.509,1175.257,115.729,589.971,90.535,669.924S1345.17,6088.015,1920,6274.811Z" transform="translate(48.5 48.5)" fill="#1b0650"/>
    </g>
    <g transform="matrix(1, 0, 0, 1, -48.5, -48.5)" filter="url(#Pfad_249)">
      <path id="Pfad_249-2" data-name="Pfad 249" d="M1799.406,276.035c-70.018,123.7-57.635,88.039-194.479,253.764-224.079,73.679-407.876,197.718-576.793,357.244S764.308,1163.591,656.612,1313.68c-149.342,252.02-52.781,318.085-138.883,502.426-124.717,276.19-178.608,241.3-271.562,355.639C59.137,2401.795-35,2502.815-35,2502.815V35H1885S1869.425,152.335,1799.406,276.035Z" transform="translate(83.5 13.5)" fill="#1b0650"/>
    </g>
  </g>
</svg>
